X: 4052
T: Blaze Away!
R: jig
M: 6/8
K: Dmajor
a^gb a3|A^GB A3|A2^AB2^B|c2z[c3a3]|:a^gb afe|dce dcB|c2^Bc2B|c3-c2z|b^ac' bgf|
e^df ecA|d2cd2c|d2z a3|a^gb afe|dce dcB|c2^B c2B|c3-c2 e/e/|e2^e f2=f|e2d' c'2b|
[1 a3a2z:|2 aaa aaa|:[ca]z[ca] [ca]z[ca]|[ca]z[ca] [ca]z[ca]|[fa]z[fa] [fa]z[fa]|[fa]z[fa] [fa]z[fa]|
[^dB]z[^dB] [^dB]z[^dB]|[^dB]z[^dB] [^dB]z[^dB]|[Bb]z[Bb] [Bb]z[Bb]|[Bb]z[Bb] [Bb]z[Bb]|
cde cde|c2c c3|Bcd Bcd|1 B2B B2 A/^G/|A3-A2A/^G/|A^GA _BAG|Aaa a3:|
[2 B2B B3|d3 ^G3|ABA FED|F3E3|D2||
K:Gmaj
P:Trio
d^c2d|B3G3|F3G3|E6|-D3B,2C|D3E3|F3G3|c6-|c2 c2Bc|B3A3|
d3B3|A3G3-|G2 GF2G|A3E3|F3G3|B2A^G2A|d2d ^c2d|B3G3|F3G3
E6-|D3 B,2C|D3G3|c3B3|A6|E6-|E3 c3|B3A3|d3B3-|B3B c2B|B3A3|E3 F3|
G6-|G2zG2 (3F/^G/^A/|:B2B B^AB|^c^dc B2 (3f/^g/^a/|b2b b^ab|^c'^d'c' b2 (3A/B/^c/|d2d d^cd|
efe d2 ab^c'|d'2d' d'^c'd'|e'ze'd'2z|_e3-e d^c|d2a d'2z|_e3-e d^c|d2a d'2z|
[Fd] [Fd] [Fd] [F3-d3-]|[Fd] [Fd] [Fd] [F3-d3-]|[F2d2] [Fd] [F2d2] [Fd]|[F2d2] d'^c'2d'|b3g3|f3g3|
e6-|d3B2c|d3e3|f3g3|c'6-|c'2c'b2c'|b3a3|d'3b3|a3g3-|g2g f2g|a3e3|f3g3|
b2a ^g2a|d'2d' ^c'2d'|b3g3|f3g3|e6-|d3 B2c|d3g3|c'3b3|a6|e6|
e3c'3|b3a3|d'3 b3-|b2b c'2b|b3a3|e3f3|1 g6-|g2zg2 (3F/^G/^A/:|2 g6-|g2zg2z|

